X: 29615
T: North Lake
R: reel
M: 4/4
K: Gmajor
D|:GFGA BGAB|cBcd e2 f2|g2 d2 edcB|cBA^G A2 D2|
~G3 A BGAB|cBcd e2 f2|gdec BdcA|GBAF G2 d2:|
|:gfga bagf|e^def g2 =d2|~g3 a bagf|edef g2 D2|
~G3 A BGAB|cBcd e2 f2|(3gfe fd ecAc|BGAF G3 z:|

